X:1
T:Somebody Knows
T:Somebody Knows
T:Benton DeForest Ackley
T:Alfred Henry Ackley, 1901
T:Public Domain Courtesy of the Cyber Hymnal™
T:Public Domain Courtesy of the Cyber Hymnal™
C:Benton DeForest Ackley
Z:Public Domain
Z:Courtesy of the Cyber Hymnal™
%%score ( 1 2 ) 3 ( 4 5 )
L:1/8
Q:1/4=140
M:6/4
K:Db
V:1 treble 
V:2 treble 
V:3 treble 
V:4 bass 
V:5 bass 
V:1
 A2 F2 A2 d2 c2 B2 | A2 D2 G2 F6 | A2 E2 F2 G6 | B2 A2 =G2 A6 | A2 F2 A2 d2 c2 B2 | A2 D2 G2 F6 | %6
w: 1.~Fail- ing in strength when op-|pressed by my foes,|Some- bo- dy knows,|some- bo- dy knows,|Wait- ing for some- one to|ban- ish my woes,|
w: 2.~Why should I fear when the|care bil- lows roll?|Some- bo- dy knows,|some- bo- dy knows;|When the deep sha- dows sweep|o- ver my soul,|
w: 3.~Wound- ed and help- less and|sick with dis- tress,|Some- bo- dy knows,|some- bo- dy knows,|Long- ing for home and a|mo- ther’s ca- ress,|
 E2 G2 B2 e4 c2 | B6 A6 ||"^Refrain" [FA]2 [Fd]2 [Fc]2 [CG]6 | [EG]2 [Gc]2 [GB]2 [DF]6 | %10
w: Some- bo- dy knows, ’tis|Je- sus.|||
w: Some- bo- dy knows, ’tis|Je- sus.|Some- bo- dy knows,|some- bo- dy knows,|
w: Some- bo- dy knows, ’tis|Je- sus.|||
 [FA]2 [=E=G]2 [FA]2 [_GB]2 [GB]2 B2 | [=Ge]2 [GB]2 [Gd]2 [_Gc]6 | %12
w: ||
w: When I am tempt- ed and|tried by my foes;|
w: ||
 [Fd]2 [Fe]2 [Fd]2 [DF]2 [CG]2 [DA]2 | [GB]6 [=Ed]6 | [FA]2 [DF]2 [GB]2 [FA]4 [DF]2 | %15
w: |||
w: He is the one who will|keep me—|Some- bo- dy knows— ’tis|
w: |||
 !fermata![A,CE]6 !fermata![A,D]6 |] %16
w: |
w: Je- sus.|
w: |
V:2
 x12 | x12 | x12 | x12 | x12 | x12 | x12 | x12 || x12 | x12 | x10 A2 | x12 | x12 | x12 | x12 | %15
 x12 |] %16
V:3
 [DFA]6 [D=E=G]6 | [DFA]4 [A,CEA]2 [A,DA]6 | [CGA]4 [A,DA]2 [CEA]6 | [DG]2 [DF]2 [D=E]2 [DF]6 | %4
 [DFA]6 [D=E=G]6 | [DFA]4 [A,CEA]2 [A,DA]6 | [CE]2 [CEA]2 [EAc]2 [EAe]4 [EAc]2 | [D=GB]6 [CA]6 || %8
 x12 | x12 | x12 | x12 | x12 | x12 | x12 | x12 |] %16
V:4
 A,2 F,2 A,2 D2 C2 B,2 | A,2 D,2- G,2 x6 | A,2 E,2 F,2 G,6 | B,2 A,2 =G,2 A,6 | %4
 A,2 F,2 A,2 D2 C2 B,2 | A,2 D,2- G,2 F,6 | E,4 A,,2 C,4 [E,,E,]2 | [E,,E,]6 [A,,E,]6 || %8
 [D,D]2 [D,A,]2 [D,A,]2 [E,A,]6 | [A,,C]2 [A,,A,]2 [C,A,]2 [D,A,]6 | %10
 [D,A,]2 [D,B,]2 [D,D]2 [G,D]2 [G,D]2 [F,=D]2 | [E,E]2 [E,E]2 [E,E]2 [A,E]6 | %12
 [D,D]2 [D,A,]2 [D,A,]2 [D,A,]2 [E,A,]2 [F,D]2 | [G,D]6 [=G,B,]6 | %14
 [A,D]2 A,2 [A,C]2 [A,D]4 [A,,A,]2 | [A,,G,]6 [D,F,]6 |] %16
V:5
 D,6- D,6 | D,6 D,6 | A,,6- A,,6 | D,6- D,6 | D,6- D,6 | D,6 D,6 | x12 | x12 || x12 | x12 | x12 | %11
 x12 | x12 | x12 | x12 | x12 |] %16

